.local/share/icons/Gruvbox-Plus-Dark/actions/16/key-enter.svg

<svg xmlns="http://www.w3.org/2000/svg" width="16" height="16" viewBox="0 0 16 16">
 <defs>
  <style id="current-color-scheme" type="text/css">
   .ColorScheme-Text { color:#ebdbb2; } .ColorScheme-Highlight { color:#458588; }
  </style>
 </defs>
 <path style="fill:currentColor" class="ColorScheme-Text" d="M 7 1 A 1.0001 1.0001 0 0 0 6 2 L 6 6 L 2 6 A 1.0001 1.0001 0 0 0 1 7 L 1 14 A 1.0001 1.0001 0 0 0 2 15 L 14 15 A 1.0001 1.0001 0 0 0 15 14 L 15 2 A 1.0001 1.0001 0 0 0 14 1 L 7 1 z M 11 4 L 12 4 L 12 11 L 8 11 L 8 12 L 5 10.5 L 8 9 L 8 10 L 11 10 L 11 4 z"/>
</svg>

<svg width="16" height="16" version="1.1" xmlns="http://www.w3.org/2000/svg">
  <defs>
    <style id="current-color-scheme" type="text/css">.ColorScheme-Text { color:#ebdbb2; } .ColorScheme-Highlight { color:#458588; }</style>
  </defs>
  <path class="ColorScheme-Text" d="m7 1a1 1 0 0 0-1 1v4h-4a1 1 0 0 0-1 1v7a1 1 0 0 0 1 1h12a1 1 0 0 0 1-1v-12a1 1 0 0 0-1-1h-7zm4 3h1v7h-4v1l-3-1.5 3-1.5v1h3v-6z" fill="currentColor"/>
</svg>
